X: 452
T: Bugün Yine Gönlümün Bahçesinde...
C: Emin Ongan
O: Turkey
F: http://compmusic.upf.edu/node/140
N: nihavent--sarki--duyek--bugun_yine--emin_ongan
N: makam= nihavent
N: form= sarki
N: usul= duyek = 8/4
M: 8/4
L: 1/16
K: C _B _e  
Q: 1/4=144
%%MIDI tuningsystem comma53
G2 d2 g2 d2 g2 d2 gg d2  | z2 g4 b2 a2 g2 ^f2 e2  | \
w:  Bu gün  SAZ *  yi ne  SAZ  |  gön lü mün   | 
d2 e4 e2 e4 a4  | 
w:  *  bah çe sin de   | 
^f2 g2 e2 d2 d3e dc BA  | G2 d2 g2 d2 g2 d2 gg d2  | \
w:  ge zin *  *  din   SAZ  |  Bu gün  SAZ *  yi ne  SAZ  | 
z2 g4 b2 a2 g2 ^f2 e2  | 
w:  gön lü mün   | 
d2 e4 e2 e4 a4  | ^f2 g2 e2 d2 d4 d_1/4e =f2  | \
w:  *  bah çe sin de   |  ge zin *  *  din   SAZ  | 
z4 d2 _1/4e2 f4 f4  | z2 g4 f2 e2 ed e4  | 
w:  Sa na  bak tım   |  ay  ka dar   | 
d2 f4 e2 d6 c2  | d2 B4 c2 d4 fe d2  | \
w:  ba har  ka dar   |  gü zel *  din   SAZ  | 
z4 d2 g2 d4 g4  | z2 b4 ag fe dc B4  | 
w:  Sa na  bak tım   |  ay  ka *  dar   | 
A2 c4 c2 d8  | A2 B2 G2 ^F2 G4 b3/2a/ b2  | \
w:  ba har  ka dar   |  gü zel *  *  din  SAZ  | 
z4 g2 a2 b4 b2 b2  | a2 c'2 b2 a2 g2 ^f2 g4  | 
w:  Gel  *  gör  be ni   |  ne le re  *  dû *  çar   | 
z2 a4 b2 a2 g2 ^f2 a2  | a8 d2 ^f2 a4  | \
w:  ey le di  der  |  din   SAZ  | 
z2 b6 a2 g2 ^f2 f2  | g2 b2 a2 g2 ^f2 e2 d4  | 
w:  Gel  gör  *  be ni   |  ne le re  *  dû *  çar   | 
z2 a4 ^f2 g2 e4 d2  | d12 d_1/4e f2  | \
w:  ey le di  der  |  din   SAZ  | 
z4 d2 _1/4e2 f4 f4  | z2 g4 f2 e2 ed e4  | 
w:  Sa na  bak tım   |  ay  ka dar   | 
d2 f4 e2 d6 c2  | d2 B4 c2 d4 fe d2  | \
w:  ba har  ka dar   |  gü zel *  din   SAZ  | 
z4 d2 g2 d4 g4  | z2 b4 ag fe dc B4  | 
w:  Sa na  bak tım   |  ay  ka *  dar   | 
A2 c4 c2 d8  | A2 B2 G2 ^F2 G4 |
w:  ba har  ka dar   |  gü zel *  *  din   | 


